.gitbook/assets/ci-debugger.svg

<svg xmlns="http://www.w3.org/2000/svg" width="404" height="251" fill="none" viewBox="0 0 404 251"><path fill="#F0894F" d="M0 0h404v251H0z"/><path fill="#572900" fill-rule="evenodd" d="M202.014 155.912c13.605 0 24.634-11.029 24.634-24.634 0-13.604-11.029-24.633-24.634-24.633s-24.634 11.029-24.634 24.633c0 13.605 11.029 24.634 24.634 24.634Zm0 6.134c16.993 0 30.767-13.775 30.767-30.768 0-16.992-13.774-30.767-30.767-30.767-16.992 0-30.767 13.775-30.767 30.767 0 16.993 13.775 30.768 30.767 30.768Z" clip-rule="evenodd"/><path fill="#572900" fill-rule="evenodd" d="M225.485 144.493a3.068 3.068 0 0 1 4.337 0l10.256 10.256a3.068 3.068 0 0 1-4.337 4.337l-10.256-10.256a3.068 3.068 0 0 1 0-4.337Zm-46.941 0a3.068 3.068 0 0 0-4.337 0l-10.256 10.256a3.066 3.066 0 1 0 4.337 4.337l10.256-10.256a3.068 3.068 0 0 0 0-4.337Zm0-26.43a3.066 3.066 0 0 1-4.337 0l-10.256-10.256a3.066 3.066 0 1 1 4.337-4.336l10.256 10.255a3.068 3.068 0 0 1 0 4.337Zm46.941 0a3.066 3.066 0 0 0 4.337 0l10.256-10.256a3.067 3.067 0 0 0-4.337-4.336l-10.256 10.255a3.068 3.068 0 0 0 0 4.337Zm-23.471-14.284a3.067 3.067 0 0 1 3.067 3.066v49.067a3.067 3.067 0 1 1-6.133 0v-49.067a3.066 3.066 0 0 1 3.066-3.066Z" clip-rule="evenodd"/><path fill="#572900" fill-rule="evenodd" d="M215.575 107.361c0-7.49-6.071-13.561-13.561-13.561-7.489 0-13.561 6.071-13.561 13.561a3.067 3.067 0 1 1-6.133 0c0-10.877 8.817-19.695 19.694-19.695 10.877 0 19.695 8.818 19.695 19.695a3.067 3.067 0 1 1-6.134 0Z" clip-rule="evenodd"/></svg>

<svg width="404" height="251" viewBox="0 0 404 251" fill="none" xmlns="http://www.w3.org/2000/svg">
<rect width="404" height="251" fill="#F0894F"/>
<path fill-rule="evenodd" clip-rule="evenodd" d="M202.014 155.912C215.619 155.912 226.648 144.883 226.648 131.278C226.648 117.674 215.619 106.645 202.014 106.645C188.409 106.645 177.38 117.674 177.38 131.278C177.38 144.883 188.409 155.912 202.014 155.912ZM202.014 162.046C219.007 162.046 232.781 148.271 232.781 131.278C232.781 114.286 219.007 100.511 202.014 100.511C185.022 100.511 171.247 114.286 171.247 131.278C171.247 148.271 185.022 162.046 202.014 162.046Z" fill="#572900"/>
<path fill-rule="evenodd" clip-rule="evenodd" d="M225.485 144.493C226.683 143.296 228.624 143.296 229.822 144.493L240.078 154.749C241.275 155.947 241.275 157.888 240.078 159.086C238.88 160.284 236.938 160.284 235.741 159.086L225.485 148.83C224.288 147.633 224.288 145.691 225.485 144.493Z" fill="#572900"/>
<path fill-rule="evenodd" clip-rule="evenodd" d="M178.544 144.493C177.346 143.296 175.404 143.296 174.207 144.493L163.951 154.749C162.753 155.947 162.753 157.888 163.951 159.086C165.149 160.284 167.09 160.284 168.288 159.086L178.544 148.83C179.741 147.633 179.741 145.691 178.544 144.493Z" fill="#572900"/>
<path fill-rule="evenodd" clip-rule="evenodd" d="M178.544 118.063C177.346 119.261 175.404 119.261 174.207 118.063L163.951 107.807C162.753 106.61 162.753 104.668 163.951 103.471C165.149 102.273 167.09 102.273 168.288 103.471L178.544 113.726C179.741 114.924 179.741 116.866 178.544 118.063Z" fill="#572900"/>
<path fill-rule="evenodd" clip-rule="evenodd" d="M225.485 118.063C226.683 119.261 228.624 119.261 229.822 118.063L240.078 107.807C241.275 106.61 241.275 104.668 240.078 103.471C238.88 102.273 236.938 102.273 235.741 103.471L225.485 113.726C224.288 114.924 224.288 116.866 225.485 118.063Z" fill="#572900"/>
<path fill-rule="evenodd" clip-rule="evenodd" d="M202.014 103.779C203.708 103.779 205.081 105.152 205.081 106.845L205.081 155.912C205.081 157.606 203.708 158.979 202.014 158.979C200.321 158.979 198.948 157.606 198.948 155.912L198.948 106.845C198.948 105.152 200.321 103.779 202.014 103.779Z" fill="#572900"/>
<path fill-rule="evenodd" clip-rule="evenodd" d="M215.575 107.361C215.575 99.8714 209.504 93.7998 202.014 93.7998C194.525 93.7998 188.453 99.8714 188.453 107.361C188.453 109.055 187.08 110.428 185.386 110.428C183.693 110.428 182.32 109.055 182.32 107.361C182.32 96.484 191.137 87.6665 202.014 87.6665C212.891 87.6665 221.709 96.484 221.709 107.361C221.709 109.055 220.336 110.428 218.642 110.428C216.948 110.428 215.575 109.055 215.575 107.361Z" fill="#572900"/>
</svg>
